wilib/img/svg/arvore_001.svg

<svg xmlns="http://www.w3.org/2000/svg" xmlns:xlink="http://www.w3.org/1999/xlink" preserveAspectRatio="none" width="40" height="40" viewBox="0 0 40 40"><defs><path fill="#B5793B" d="M46.2 87.1l-2.5 1.75v.25l1.5 1.5 13.5 18.05 4 6.5 1.75 4.8.25 2-.25 6.75-1 5.5-2.75 8.05h22.5l-1.5-3.5-1.25-4.55-1-5.75-.25-6.5.25-2 1.75-4.55 4.75-7.25 8.7-11-6.45 2.25-14.25 17.05-.75.5-1 .25-.75-.25-.75-.5L46.2 87.1z" id="a"/><path fill="#8CC63F" d="M86.95 22.9l-1.25-2.5-1.75-2.25-4.25-3.5-5.25-2-3-.25-1-.25-2.75.25-5.25 1.75-2.25 1.25-3.75 3.5-3.25 5.25-.75.5-1 .25-.75-.25-2-1-4-1.25-5-.25-1.75.25-3.25 1-3 1.5-2.5 1.75-2.95 3.8-1.5 2.75-.5 1.5-.5 3.25v1l.5 3.5v1l-.5.75-.75.75-1 .25v-.25l-5.25.75-1.5.5-3 1.5-2.5 2.05-3 3.5-1.5 3-.5 1.5-.5 3.25v1L5 66.5l.75 2.05 2.5 4 1.5 1.5 4 2.75.75.75.25.5v.75l.5 3 1 3 1.5 2.8 2 2.5 2.5 2 4.25 2.25 1.7.5 3.25.5h3l1.5-.25 3.5-1 4.25-2.5 1.25-1.25 1.5-.5h.25l.75.25.75.5 5.25 5.25 3 2.25 7 3.75 7.5 2 4.25.5h4.75l5-.75 7.2-2.25 4.5-2.25 4-2.75 1.75-1.5 3.25-3.5 3-4 1-2.05.5-.5.75-.5.5-.25.75.25 5.75.25 3.5-.5 1.5-.5 3-1.5 2.5-2 2-2.25 1.75-2.75.75-1.5.5-1.5.5-3.25v-1l-.75-4.8-.5-1.5-1.5-2.75-2-2.5-4-3-1.5-.75-4.75-1.5h-3l-1-.25-.75-.75-.5-1 .75-3.05.25-4.75-.25-1.75-1-3-1.5-2.75-2-2.5-3.75-3.05-1.5-.75-5-1.5H97.9l-1-.25-6.25 1.25h-1l-.7-.25-.75-.5-.5-.75-.75-2.5z" id="b"/></defs><use xlink:href="#a" transform="translate(1.1 -.95) scale(.27417)"/><use xlink:href="#b" transform="translate(1.1 -.95) scale(.27417)"/></svg>

<svg xmlns="http://www.w3.org/2000/svg" version="1.1" xmlns:xlink="http://www.w3.org/1999/xlink" preserveAspectRatio="none" x="0px" y="0px" width="40px" height="40px" viewBox="0 0 40 40">
<defs>
<g id="j0437673_wmf_0_Layer0_0_FILL">
<path fill="#B5793B" stroke="none" d="
M 46.2 87.1
L 43.7 88.85 43.7 89.1 45.2 90.6 58.7 108.65 62.7 115.15 64.45 119.95 64.7 121.95 64.45 128.7 63.45 134.2 60.7 142.25 83.2 142.25 81.7 138.75 80.45 134.2 79.45 128.45 79.2 121.95 79.45 119.95 81.2 115.4 85.95 108.15 94.65 97.15 88.2 99.4 73.95 116.45 73.2 116.95 72.2 117.2 71.45 116.95 70.7 116.45 46.2 87.1 Z"/>
</g>

<g id="j0437673_wmf_0_Layer0_1_FILL">
<path fill="#8CC63F" stroke="none" d="
M 86.95 22.9
L 85.7 20.4 83.95 18.15 79.7 14.65 74.45 12.65 71.45 12.4 70.45 12.15 67.7 12.4 62.45 14.15 60.2 15.4 56.45 18.9 53.2 24.15 52.45 24.65 51.45 24.9 50.7 24.65 48.7 23.65 44.7 22.4 39.7 22.15 37.95 22.4 34.7 23.4 31.7 24.9 29.2 26.65 26.25 30.45 24.75 33.2 24.25 34.7 23.75 37.95 23.75 38.95 24.25 42.45 24.25 43.45 23.75 44.2 23 44.95 22 45.2 22 44.95 16.75 45.7 15.25 46.2 12.25 47.7 9.75 49.75 6.75 53.25 5.25 56.25 4.75 57.75 4.25 61 4.25 62 5 66.5 5.75 68.55 8.25 72.55 9.75 74.05 13.75 76.8 14.5 77.55 14.75 78.05 14.75 78.8 15.25 81.8 16.25 84.8 17.75 87.6 19.75 90.1 22.25 92.1 26.5 94.35 28.2 94.85 31.45 95.35 34.45 95.35 35.95 95.1 39.45 94.1 43.7 91.6 44.95 90.35 46.45 89.85 46.7 89.85 47.45 90.1 48.2 90.6 53.45 95.85 56.45 98.1 63.45 101.85 70.95 103.85 75.2 104.35 79.95 104.35 84.95 103.6 92.15 101.35 96.65 99.1 100.65 96.35 102.4 94.85 105.65 91.35 108.65 87.35 109.65 85.3 110.15 84.8 110.9 84.3 111.4 84.05 112.15 84.3 117.9 84.55 121.4 84.05 122.9 83.55 125.9 82.05 128.4 80.05 130.4 77.8 132.15 75.05 132.9 73.55 133.4 72.05 133.9 68.8 133.9 67.8 133.15 63 132.65 61.5 131.15 58.75 129.15 56.25 125.15 53.25 123.65 52.5 118.9 51 115.9 51 114.9 50.75 114.15 50 113.65 49 114.4 45.95 114.65 41.2 114.4 39.45 113.4 36.45 111.9 33.7 109.9 31.2 106.15 28.15 104.65 27.4 99.65 25.9 97.9 25.9 96.9 25.65 90.65 26.9 89.65 26.9 88.95 26.65 88.2 26.15 87.7 25.4 86.95 22.9 Z"/>
</g>
</defs>

<g id="seta_01" transform="matrix( 0.9999847412109375, -0.0000152587890625, 0.0000152587890625, 0.9999847412109375, 20.05,20.05) ">
<g transform="matrix( 1, 0, 0, 1, 0,0) ">
<g transform="matrix( 0.274169921875, 0, 0, 0.274169921875, -18.95,-21) ">
<g transform="matrix( 1, 0, 0, 1, 0,0) ">
<use xlink:href="#j0437673_wmf_0_Layer0_0_FILL"/>
</g>

<g transform="matrix( 1, 0, 0, 1, 0,0) ">
<use xlink:href="#j0437673_wmf_0_Layer0_1_FILL"/>
</g>
</g>
</g>
</g>
</svg>
